!!!!SEGMENT: pl-wumfc--r262_paderewski-ignacy-jan--danse-polonaise-krakowiak.krn
!!!cenid: 18xx:3150
!!!COM: Paderewski, Ignacy Jan
!!!COM-rismid: pe30029943
!!!CDT: 1860/11/18-1941/06/29
!!!CNT: Polish
!!!OTL: Danse Polonaise – Krakowiak
!!!PDT:
!!!AGN:
!!!SMS-siglum: PL-Wumfc
!!!SMS-shelfmark: R262
!!!SMS-shelfwork: W
!!!SMS-variant:
!!!SMS-altvar:
!!!NIFC-rismid: 1001156660
!!!URL-scan: http://repozytorium.nifc.pl/skany/pl-wumfc--r262
!!!ONB-nifc: UWAGA: na podstawie partytury. Proszę wypełnić !!!SMS:variant SMS:altvar (w żródle występuje partytura i partia skrzypiec)
!!!key: C
!!!OMD: Allegretto ma non troppo.
**kern	**dynam	**fing	**kern	**dynam	**kern	**fing	**dynam
*group2	*	*	*group2	*	*group1	*	*
*part3	*part3	*part3	*part2	*part2	*part1	*part1	*part1
*staff3	*	*staff3	*staff2	*	*staff1	*	*
*I"[Piano]	*	*	*I"[Piano]	*	*I"[Violino]	*	*
*Ipiano	*	*	*Ipiano	*	*Ivioln	*	*
*ICklav	*	*	*ICklav	*	*ICstr	*	*
*IGacmp	*	*	*IGacmp	*	*IGsolo	*	*
*clefF4	*	*	*clefG2	*	*clefG2	*	*
*k[]	*	*	*k[]	*	*k[]	*	*
*C:	*	*	*C:	*	*C:	*	*
*M2/4	*	*	*M2/4	*	*M2/4	*	*
=1	=1	=1	=1	=1	=1	=1	=1
2CC\	.	.	8r	.	2r	.	.
.	.	.	(>8G</	.	.	.	.
.	.	.	4c^>/) 4e/ 4g/	.	.	.	.
=2	=2	=2	=2	=2	=2	=2	=2
2CC\	.	.	8r	.	4r	.	.
.	.	.	(>8G</	.	.	.	.
.	.	.	4c^>/) 4e/ 4g/	.	8r	.	.
!	!	!	!	!	!LO:TX:a:t=sol G.	!	!LO:DY:rj:t=mf.
.	.	.	.	.	(<8Gu>/	.	mf
=3	=3	=3	=3	=3	=3	=3	=3
*^	*	*	*	*	*	*	*
8r	2CC\ 2GG\	.	.	4r	.	8d/L	.	.
(<8G/	.	.	.	.	.	8e/)	.	.
!	!	!	!	!LO:TX:t=P:problem=all\right&colon; global	!LO:DY:rj:t=p.	!	!	!
4B/) 4f/	.	.	.	4g^>\ 4b\ 4ff\ 4gg\	p	(<8f/	.	.
.	.	.	.	.	.	16e~</L	.	.
.	.	.	.	.	.	16d~</JJ	.	<
=4	=4	=4	=4	=4	=4	=4	=4	=4
8r	2CC\ 2GG\	.	.	4r	.	8e~/)	.	.
(<8G/	.	.	.	.	.	(<4g/	.	[
4c/) 4e/	.	.	.	4g^>\ 4cc\ 4ee\ 4gg\	.	.	.	.
.	.	.	.	.	.	8e/)	.	.
=5	=5	=5	=5	=5	=5	=5	=5	=5
8r	2CC\	.	.	4r	.	8d/L	.	.
(<8A/	.	.	.	.	.	8c/	.	.
!	!	!	!	!LO:TX:t=P:problem=4\middle	!	!	!	!
4c/) 4f/	.	.	.	4a^>\ 4cc\ 4ff\ 4aa\	.	(<8A/	.	.
.	.	.	.	.	.	8c/J)	.	.
=6	=6	=6	=6	=6	=6	=6	=6	=6
.	.	.	.	.	.	(<8qc/	.	.
8r	2CC\	.	.	4r	.	2G^>/)	.	.
8G/	.	.	.	.	.	.	.	.
4c/ 4e/	.	.	.	4g^>\ 4cc\ 4ee\ 4gg\	.	.	.	.
!!LO:LB:g=original
=7	=7	=7	=7	=7	=7	=7	=7	=7
8r	2CC\ 2GG\	.	.	4r	.	8d/L	.	<
(<8A/	.	.	.	.	.	8e/	.	.
4B/) 4f/	.	.	.	4g^>\ 4b\ 4ff\ 4gg\	.	(<8f/	.	[
.	.	.	.	.	.	16e/L	.	.
.	.	.	.	.	.	16d/JJ	.	.
=8	=8	=8	=8	=8	=8	=8	=8	=8
*	*	*	*	*	*	*	*^	*
8r	2C\	.	.	4r	.	8e/)	.	.	.
(<8A/	.	.	.	.	.	(<4a^>/	.	3	.
4c/) 4e/	.	.	.	4a^>\ 4cc\ 4ee\ 4aa\	.	.	.	.	.
.	.	.	.	.	.	8e^/)	.	3	.
*	*	*	*	*	*	*	*v	*v	*
=9	=9	=9	=9	=9	=9	=9	=9	=9
8r	2AA\	.	.	4r	.	8dM</L	.	.
(<8A/	.	.	.	.	.	8c/	.	.
4e/) 4a/	.	.	.	4cc^>\ 4ee\ 4ff#X\ 4ccc\	.	(<8d/	.	.
.	.	.	.	.	.	8e/J)	.	.
=10	=10	=10	=10	=10	=10	=10	=10	=10
.	.	.	.	.	.	(<8qe/	.	.
8r	4.EE;>\	.	.	4r	.	4.B;>/)	.	.
(<8B/	.	.	.	.	.	.	.	.
8e;>/) 8g#X/	.	.	.	8b;>\ 8ee\ 8gg#X\ 8bb\	.	.	.	.
8r	8r	.	.	8r	.	8ee\	.	.
*v	*v	*	*	*	*	*	*	*
=11	=11	=11	=11	=11	=11	=11	=11
!	!	!	!LO:TX:a:B:t=Vivace.	!	!LO:TX:a:B:t=Vivace.	!	!
2G\	.	.	8r	.	4gg\	.	.
!	!	!	!	!LO:DY:rj:t=pp.	!	!	!
.	.	.	8d/ 8gn/ 8b/	pp	.	.	.
!	!	!	!	!	!	!	!LO:DY:a
.	.	.	.	.	(<8qb/	.	pp
.	.	.	8r	.	8dd\L)	.	.
.	.	.	.	.	(<8qb-X/	.	.
.	.	.	8c#X/ 8g/ 8b-X/	.	8ee\J)	.	.
=12	=12	=12	=12	=12	=12	=12	=12
.	.	.	.	.	(<8qa/	.	.
2D\	.	.	8r	.	8ff\L)	.	<
.	.	.	.	.	(>(<16qqff/LL	.	.
.	.	.	.	.	16qqgg/JJ	.	.
.	.	.	8d/ 8f/ 8a/	.	8ff\))	.	.
.	.	.	8r	.	(>8ee\	.	.
.	.	.	8d/ 8f/ 8a/	.	8dd\J	.	[[
!!LO:LB:g=original
=13	=13	=13	=13	=13	=13	=13	=13
2G\	.	.	8r	.	8gg\)^<	.	.
.	.	.	.	.	&(>(<16qqgg/LL)	2	.
.	.	.	.	.	16qqaa/JJ	.	.
.	.	.	8d/ 8g/ 8b/	.	8gg\L)	.	.
.	.	.	.	.	(<8qb	.	.
!	!	!	!	!	!	!	!LO:DY:t=pp.
.	.	.	8r	.	8dd\&)	.	pp
.	.	.	.	.	(>8qb-X/	.	.
.	.	.	8c#X/ 8g/ 8b-X/	.	8ee\J)	.	.
=14	=14	=14	=14	=14	=14	=14	=14
.	.	.	.	.	(>8qa/	.	.
4D\	.	.	8r	.	8ff\L)	.	.
.	.	.	.	.	(<16qqff/LL	.	.
.	.	.	.	.	16qqgg/JJ	.	.
.	.	.	8d/ 8f/ 8a/	.	8ff\)	.	.
4E\	.	.	8r	.	(>8ee\	.	.
.	.	.	8B/ 8e/ 8g#X/	.	8dd\J	.	.
=15	=15	=15	=15	=15	=15	=15	=15
!	!	!	!	!	!LO:TX:t=P:problem=8\right	!	!
4A\	.	.	8r	.	8cc\L)	.	.
.	.	.	.	.	(>(>16qqcc/LL	.	.
.	.	.	.	.	16qqdd/JJ	.	.
.	.	.	8c/ 8e/ 8a/	.	8cc~>\)	.	<
4D\	.	.	8r	.	8b~>\	.	.
.	.	.	8c/ 8e-X/ 8f#X/	.	8a~\J	.	.
=16	=16	=16	=16	=16	=16	=16	=16
8G\	.	.	8B/ 8d/ 8g/	.	8g~>/L)	.	.
!	!	!	!	!	!LO:TX:b:i:t=ritar.	!	!
(>8D\L	.	.	(<8c/L 8f#X/	.	(<8b/^<	.	.
8G\)	.	.	8B/) 8g/	.	8g/)	.	.
(>8D\J	.	.	(<8c/J 8f#/	.	(<8b/J^<	.	.
=17	=17	=17	=17	=17	=17	=17	=17
*^	*	*	*	*	*	*	*
8G/)	2GG\	.	.	8B/) 8g/	.	8g/)	.	.
.	.	.	.	.	.	(<16qqg/LL	.	.
.	.	.	.	.	.	16qqa/JJ)	.	.
8D/	.	.	.	8B/ 8g/	.	8g/L	.	.
8r	.	.	.	8r	.	(<8f/	.	.
8C#X/	.	.	.	8A#X/ 8e/	.	8e/J	.	.
=18	=18	=18	=18	=18	=18	=18	=18	=18
2D/	8GG\L	.	.	8B/L 8d/	.	8d/L)	.	.
!	!	!	!	!LO:TX:i:b:t=rit.	!	!	!	!
.	(>8DD\	.	.	(<8A/ (>/8f	.	(<8f/J	.	.
.	8AA\)	.	.	8B/) 8d/)	.	8d/)	.	.
!	!	!	!	!	!	!LO:TX:b:i:t=rit.:rj	!	!
.	8DD;>\J	.	.	8A;>/J 8f/	.	(>8f;>/	.	.
!!LO:LB:g=original
=19	=19	=19	=19	=19	=19	=19	=19	=19
*	*	*	*	*	*	*	*^	*
!	!	!	!	!	!	!LO:TX:a:t=|:problem	!	!	!
!	!	!	!	!	!	!LO:TX:b:t=IV	!	!	!
8r	2GG\	.	.	8r	.	8dd\L)	.	0	.
!	!	!	!	!	!	!LO:TX:b:t=II	!	!	!
(<16G^>/LL	.	.	.	[<8B^>/ [>/8f	.	8eev>\	.	2	.
16A/JJ	.	.	.	.	.	.	.	.	.
4G/)	.	.	.	4B/] 4f/]	.	8ff\	.	.	.
.	.	.	.	.	.	(>16ee~>\L	.	.	.
.	.	.	.	.	.	16dd~>\JJ	.	.	.
*	*	*	*	*	*	*	*v	*v	*
=20	=20	=20	=20	=20	=20	=20	=20	=20
8r	2CC\	.	.	8r	.	8ee\)	.	<
(<16G^>/LL	.	.	.	[<8c^>/ [>/8e	.	(>4gg\	.	[
16A/JJ	.	.	.	.	.	.	.	.
4G/)	.	.	.	4c/] 4e/]	.	.	.	.
.	.	.	.	.	.	8ee\)	.	>
=21	=21	=21	=21	=21	=21	=21	=21	=21
!	!	!	!	!	!	!LO:TX:t=P:problem=all\right&colon; global	!	!
8r	2FF\	.	.	8r	.	8dd\L	.	]
(<16A^>/LL	.	.	.	[<8c^>/ [>/8f	.	8cc\	.	.
16B/JJ	.	.	.	.	.	.	.	.
4A/)	.	.	.	4c/] 4f/]	.	(>8a\	.	.
.	.	.	.	.	.	8cc\J)	.	.
=22	=22	=22	=22	=22	=22	=22	=22	=22
.	.	.	.	.	.	(<8qcc/	.	.
8r	2C\	.	.	8r	.	2g^>/)	.	.
(<16G/LL	.	.	.	[<8c^>/ [>/8e	.	.	.	.
16A/JJ	.	.	.	.	.	.	.	.
4G/)	.	.	.	4c/] 4e/]	.	.	.	.
=23	=23	=23	=23	=23	=23	=23	=23	=23
!	!	!	!	!	!	!LO:TX:a:i:t=sol A.	!	!
8r	2F\	.	.	8r	.	8a\L	.	<
(<16A/LL	.	.	.	[<8c/ [>/8f	.	8b\	.	.
16B/JJ	.	.	.	.	.	.	.	.
4A/)	.	.	.	4c/] 4f/]	.	(>8cc\	.	.
.	.	.	.	.	.	8aa\J	2	.
=24	=24	=24	=24	=24	=24	=24	=24	=24
!	!	!	!	!	!	!LO:TX:t=P:problem=all\left&colon; global	!	!LO:HP:i:t=cres.
8r	2E\	.	.	8r	.	8gg\)	.	[ <
(<16G/LL	.	.	.	[<8c/ [>/8g	.	(>4bb\	0	.
16A/JJ	.	.	.	.	.	.	.	.
4G/)	.	.	.	4c/] 4g/]	.	.	.	.
.	.	.	.	.	.	8aa\)	3	.
!!LO:PB:g=original
=25	=25	=25	=25	=25	=25	=25	=25	=25
8r	2D\	.	.	8r	.	8gg\L	.	.
(<16G/LL	.	.	.	[<8B^>/ [>/8f	.	8ff\	.	<
16A/JJ	.	.	.	.	.	.	.	.
4G/)	.	.	.	4B/] 4f/]	.	(>8dd\	.	.
.	.	.	.	.	.	8ff\J)	.	[[
=26	=26	=26	=26	=26	=26	=26	=26	=26
8r	2C\	.	.	8r	.	16ee\LL	.	.
.	.	.	.	.	.	16ff\JJ	.	.
(<16G/LL	.	.	.	[<8c^>/ [>/8e	.	4gg\	.	>
16A/JJ	.	.	.	.	.	.	.	.
4G/)	.	.	.	4c/] 4e/]	.	.	.	.
.	.	.	.	.	.	(<8g/	.	]
*v	*v	*	*	*	*	*	*	*
=27	=27	=27	=27	=27	=27	=27	=27
!	!	!	!	!	!LO:TX:t=P:problem=all\right&colon; global	!	!
(>4.F\	.	.	8r	.	8a\L)	.	.
.	.	.	(>4A/ 4f/	.	8b\	.	<
.	.	.	.	<	(8cc\	.	.
8f\	.	.	8a/) 8cc/	.	8aa\J	.	.
=28	=28	=28	=28	=28	=28	=28	=28
!LO:TX:t=P:problem=all\middle&colon; global	!	!	!	!	!LO:TX:t=P:problem=8\left	!	!
8e\)	.	.	8g/ 8cc/	[	8gg\)	.	[
!	!	!	!	!	!LO:TX:t=P:problem=all\middle&colon; global	!	!
(>8e\L	.	.	(>8g/L [>/8cc	.	(>8ccc\L	.	.
!	!	!	!	!	!LO:TX:b:i:t=espres.	!	!
8f\	.	.	8a/ 8cc/]	.	8aa\)	.	.
8d\J	.	.	8a/J 8b/ 8ff/	.	(>8bb\J	.	.
=29	=29	=29	=29	=29	=29	=29	=29
!	!	!	!	!	!LO:TX:t=P:problem=all\left&colon; global	!	!
8e\L	.	.	8g/L 8b/ 8ee/	>	8gg\L)	.	.
.	.	.	.	.	(<16qqgg/LL	.	>
.	.	.	.	.	16qqaa/JJ	.	.
8c#X\	.	.	8g/ 8b-X/ 8ee/	.	8gg\)	.	.
8d\	.	.	8f/ 8a/ 8dd/	]	(>8ff\	.	.
!LO:TX:t=P:problem=8\left	!	!	!	!	!	!	!
8G\J)	.	.	8f/J) 8g/ 8b-/	.	8b\J	.	]]
=30	=30	=30	=30	=30	=30	=30	=30
.	.	.	.	.	8qee/	.	.
*^	*	*	*	*	*	*	*
8r	2CC\	.	.	8r	.	8dd\)	.	.
(<8C/ [>/8G	.	.	.	[<8e/ [>/8cc	.	4cc^>\	.	.
4C/) 4G/] 4c/	.	.	.	4e/] 4cc/]	.	.	.	.
.	.	.	.	.	.	8r	.	.
*v	*v	*	*	*	*	*	*	*
!!LO:LB:g=original
=31||	=31||	=31||	=31||	=31||	=31||	=31||	=31||
!	!	!	!	!	!LO:TX:t=P:problem=all\right&colon; global	!	!
!LO:TX:t=P:problem=tryl z krzyżykiem	!	!	!LO:TX:a:i:t=Poco piu molto ed appasionato.	!	!LO:TX:a:i:t=Poco piu molto ed appasionato.	!	!
[<2AATT<\	.	.	[>4E<^>/	.	(>8.cc\L 8.ee	.	f
.	.	.	.	.	16b'>\Jk) 16dd	.	.
.	.	.	4E<^>/] 4c< 4e<	<	(>8a'>\L 8cc	.	.
.	.	.	.	.	8b'>\J) 8dd	.	.
=32	=32	=32	=32	=32	=32	=32	=32
2AA\_<TTT<	.	.	[>4E<^>/	.	(>8.cc\L 8.ee	.	.
.	.	.	.	.	16b'>\Jk) 16dd	.	.
.	.	.	4E<^>/] 4c< 4e<	.	(>8a'>\L 8cc	.	.
.	.	.	.	.	8b'>\J) 8dd	.	.
=33	=33	=33	=33	=33	=33	=33	=33
2AA\]TTT<	.	.	4E</ 4c< 4e<	.	(>8.cc\L 8.ee	.	.
.	.	.	.	.	16b'>\Jk) 16dd	.	.
.	.	.	4A</ 4c<	[[	(<8cc'<\ 8ee	.	.
.	.	.	.	.	8a'<\) 8ff#X	.	.
=34	=34	=34	=34	=34	=34	=34	=34
!LO:TX:t=P:problem=all\left&colon; global	!	!	!	!	!LO:TX:t=P:problem=all\left&colon; global	!	!
4EE\	.	.	8r<	.	8e\ 8b 8gg	.	.
!	!	!	!	!	!LO:TUP:a:problem=klamra łukowa	!	!
.	.	.	8G</ 8B<	.	(>24e\LL	.	<
.	.	.	.	.	24g\	.	.
.	.	.	.	.	24b\JJ	.	.
!	!	!	!	!LO:DY:rj:t=sf.	!LO:TUP:a:problem=klamra łukowa	!	!
4E\	.	.	4G</ 4B< 4g	sf	24ee\LL	.	.
.	.	.	.	.	24gg\	.	.
.	.	.	.	.	24bb\	.	.
*	*	*	*	*	*8va	*	*
.	.	.	.	.	32eee\L	.	.
.	.	.	.	.	32ggg\	.	.
.	.	.	.	.	32bbb\	.	.
.	.	.	.	.	32eeee\JJJ)	0	[[
*	*	*	*	*	*X8va	*	*
=35	=35	=35	=35	=35	=35	=35	=35
!LO:TX:t=P:problem=tryl z krzyżykiem	!	!	!	!	!	!	!
[<2GGTT<\	.	.	[>4D<^>/	.	(>8.G\L 8.d 8.gg 8.bb	.	.
!	!	!	!	!	!LO:TX:t=P:problem=16\middle	!	!
.	.	.	.	.	16dd'>\Jk) 16aa	.	.
!	!	!	!	!	!LO:TX:t=P:problem=8\middle	!	!
.	.	.	4D<^>/] 4B< 4d<	.	(>8b'>\L 8gg	.	.
.	.	.	.	.	8dd'>\J) 8aa	.	.
!!LO:LB:g=original
=36	=36	=36	=36	=36	=36	=36	=36
2GG\]TTT<	.	.	[>4D</	.	(>8.gg\L 8.bb\	.	.
.	.	.	.	.	16dd'>\Jk) 16aa\	.	.
.	.	.	4D<^>/] 4B</ 4d</	.	(>8b'>\L 8gg\	.	.
.	.	.	.	.	8dd'>\J) 8aa\	.	.
=37	=37	=37	=37	=37	=37	=37	=37
2GG\TTT<	.	.	4D</ 4B</ 4d</	.	(>8.gg\L 8.bb\	.	.
.	.	.	.	.	16dd'>\Jk) 16aa\	.	.
.	.	.	8B</L 8d</	.	(>8gg'>\L 8bb\	.	.
.	.	.	8A</J 8c#X</	.	8a'>\J) 8ccc#X\	.	.
=38	=38	=38	=38	=38	=38	=38	=38
4FF#X\	.	.	8ryy	.	8d\L 8ff#X\ 8ddd\	.	.
!	!	!	!	!	!LO:TUP:a:t=P:problem=klamra łukowa	!	!
.	.	.	8A</ 8d</	.	(>24d\L	.	.
.	.	.	.	.	24f#X\	.	.
.	.	.	.	.	24a\JJ	.	<
!	!	!	!	!	!LO:TUP:a:t=P:problem=klamra łukowa	!	!
4FF#\ 4F#X\	.	.	4A/ 4d/ 4a/	sf	24dd\LL	.	.
.	.	.	.	.	24ff#\	.	.
.	.	.	.	.	24aa\	.	.
*	*	*	*	*	*8va	*	*
.	.	.	.	.	32ddd\L	.	.
.	.	.	.	.	32fff#\	.	.
.	.	.	.	.	32aaa\	.	.
.	.	.	.	.	32dddd\JJJ)	.	[
*	*	*	*	*	*X8va	*	*
=39	=39	=39	=39	=39	=39	=39	=39
*^	*	*	*	*	*	*	*
*	*8ba	*	*	*ped	*	*	*	*
8r	[<2FFF^>\	.	.	8r	.	8r	.	.
!	!	!	!	!	!	!LO:TX:t=P:problem=all\middle&colon; global	!	!
8FF/ 8AA/ 8D/ 8F/	.	.	.	8a/ 8dd/ 8aa/	ff	4d\ 4aa\ 4aaa\	.	.
*8va	*	*	*	*	*	*	*	*
!	!	!	!	!	!	!	!	!LO:DY:rj
[<4f/ [>/4a [>/4dd [>/4ff^<	.	.	.	(<4aa\ (>4ddd\ (>4aaa\^>	.	.	.	ff
.	.	.	.	.	.	(>8aa\ 8fffn\	.	.
*	*	*	*	*	*	*	*	*
=40	=40	=40	=40	=40	=40	=40	=40	=40
*	*	*	*	*	*	*	*^	*
*8va	*8ba	*	*	*	*	*	*	*	*
!LO:TX:t=P:problem=błędne wyświetlanie	!	!	!	!	!	!	!	!	!
2f/] 2a/] 2dd/] 2ff/]	2FFF\]	.	.	2aa\) 2ddd\) 2aaa\)	.	8ff\) 8ddd\	4	3	.
.	.	.	.	.	.	8dd\L 8aa\	.	.	.
!	!	!	!	!	!	!LO:TX:t=P:problem=all\right&colon; global	!	!	!
.	.	.	.	.	.	(>8a\ 8ff\	.	.	.
*	*	*	*	*Xped	*	*	*	*	*
.	.	.	.	.	.	8f\J) 8dd\	.	.	.
*	*	*	*	*	*	*	*v	*v	*
*X8va	*X8ba	*	*	*	*	*	*	*
!!LO:LB:g=original
=41	=41	=41	=41	=41	=41	=41	=41	=41
*	*	*	*	*^	*	*	*	*
!	!LO:TX:t=P:problem=all\left&colon; global	!	!	!	!	!	!LO:TX:t=P:problem=all\left&colon; global	!	!
2r	4BB\	.	.	4r	4ryy	.	16dd\LL 16ff\	.	<
.	.	.	.	.	.	.	16ee\JJ 16gg\	.	.
.	.	.	.	.	.	.	(<4ff\ 4aa\	.	[
.	4GG\	.	.	4a^>/	8r	.	.	.	.
!	!	!	!	!	!LO:TX:t=P:problem=all\left&colon; global	!	!	!	!
.	.	.	.	.	8B\ 8f\	.	8dd\) 8ff\	.	.
*v	*v	*	*	*	*	*	*	*	*
=42	=42	=42	=42	=42	=42	=42	=42	=42
!	!	!	!	!	!	!LO:TUP:a:problem=klamra łukowa	!	!
4C\	.	.	8a^>/L	8r	.	(>24dd\LL 24ff\	.	.
.	.	.	.	.	.	24ee\ 24gg\	.	.
.	.	.	.	.	.	24dd\JJ 24ff\	.	>
.	.	.	8c^>/ 8e/ 8g/	4.ryy	.	(>4cc\ 4ee\	.	.
4CC\	.	.	8G/ 8c/ 8e/	.	.	.	.	.
.	.	.	8E/J 8G/ 8c/	.	.	8cc'>\)) 8ee\	.	]
*	*	*	*v	*v	*	*	*	*
=43	=43	=43	=43	=43	=43	=43	=43
*^	*	*	*	*	*	*	*
*ped	*	*	*	*	*	*	*	*
8r	[<2FFF\ [>\2FF	.	.	8r	f	8f/ 8dd/	.	f
8F/ 8A/ 8d/	.	.	.	8a/ 8dd/	.	4du>\ 4ff\ 4aa\	.	.
[<4F/ [</4A [>/4d [>/4f^>	.	.	.	[<4a/ [>/4dd [>/4aa^>	.	.	.	.
.	.	.	.	.	.	(>8dd\ 8ff\	.	.
=44	=44	=44	=44	=44	=44	=44	=44	=44
2F/] 2A/] 2d/] 2f/]	2FFF\] 2FF\]	.	.	2a/] 2dd/] 2aa/]	>]	8a/L) 8dd/	.	.
.	.	.	.	.	.	8f/ 8a/	.	.
.	.	.	.	.	.	(>8d/ 8f/	.	.
*Xped	*	*	*	*	*	*	*	*
.	.	.	.	.	.	8A/J) 8d/	.	.
*v	*v	*	*	*	*	*	*	*
=45	=45	=45	=45	=45	=45	=45	=45
!LO:TX:t=P:problem=all\middle&colon; global	!	!	!	!	!	!	!
4BBB\	.	.	8r	.	16d/LL 16f/	.	<
.	.	.	.	.	16e/JJ 16g/	.	.
.	.	.	8A/ 8d/ 8a/	.	(<4f/ 4a/	.	[
4BB\	.	.	8r	.	.	.	.
.	.	.	8A/ 8d/	.	8A/) 8f/	.	.
=46	=46	=46	=46	=46	=46	=46	=46
*	*	*	*	*	*^	*	*
!	!	!	!	!	!LO:TX:t=P:problem=klamra łukowa	!	!	!
(>8EE\L	.	.	8r	.	(>24f/LL	8A\	.	.
.	.	.	.	.	24g/	.	.	.
.	.	.	.	.	24f/JJ	.	.	.
8BB\	.	.	8G#X</ 8B</	.	(>4G#X/ 4e/	4ryy	.	.
8BBB\	.	.	8r<	.	.	.	.	.
8BB\J)	.	.	8A</ 8d</	.	8f/)) 8dd	8ryy	.	.
*	*	*	*	*	*v	*v	*	*
!!LO:PB:g=original
=47	=47	=47	=47	=47	=47	=47	=47
!	!	!	!	!	!LO:TX:b:i:t=ritardando molto.	!	!
!	!	!	!	!	!LO:TUP:a:t=P:problem=klamra łukowa	!	!
8EE\L	.	.	8r	.	(>24A/LL 24f/	.	.
.	.	.	.	.	24g/	.	.
.	.	.	.	.	24f/JJ	.	.
!LO:TX:t=P:problem=8\left	!	!	!	!	!	!	!
8BB\	.	.	8G#X/ 8B/	.	4G#X/) 4e/	.	.
8BBB\	.	.	8r	.	.	.	.
8BB\J	.	.	8F</ 8A</ 8d/	.	8ffv>\ 8ddd\	.	.
=48	=48	=48	=48	=48	=48	=48	=48
!	!	!	!	!	!LO:TUP:b:t=P:problem=klamra łukowa	!	!
8EE\L	.	.	8A</ 8B</	.	(>24a/LL 24ff/	.	.
.	.	.	.	.	24gg/	.	.
.	.	.	.	.	24ff/JJ	.	.
8E\J	.	.	4G#X</ 4B</ 4g#X/	.	4ee\)	.	.
4EE\	.	.	.	.	.	.	.
.	.	.	.	.	(>8qee/	.	.
.	.	.	8e\ 8ee	.	8eee\)	.	.
=49	=49	=49	=49	=49	=49	=49	=49
!	!	!	!LO:TX:t=P:problem=8\right	!	!	!	!
!	!	!	!LO:TX:a:i:t=a tempo	!	!LO:TX:a:i:t=a tempo	!	!
8AA'>\L	.	.	(>8.cc\L 8.ee\	f	2eeett>\	.	<
8E'>\	.	.	.	.	.	.	.
.	.	.	16b\Jk) 16dd\	.	.	.	.
!	!	!	!LO:TX:t=P:problem=8\right	!	!	!	!
8e'>\	.	.	8a'>\L 8cc\	.	.	.	.
!LO:TX:t=P:problem=8\left	!	!	!	!	!	!	!
8E'>\J	.	.	8b'>\J 8dd\	.	.	.	.
=50	=50	=50	=50	=50	=50	=50	=50
!	!	!	!LO:TX:t=P:problem=8\right	!	!	!	!
8AA'>\L	.	.	(>8.cc\L 8.ee\	.	2eeettt>\	.	.
!LO:TX:t=P:problem=8\left	!	!	!	!	!	!	!
8E'>\	.	.	.	.	.	.	.
.	.	.	16b\Jk) 16dd\	.	.	.	.
!	!	!	!LO:TX:t=P:problem=8\right	!	!	!	!
8e'>\	.	.	8a'>\L 8cc\	.	.	.	[
!LO:TX:t=P:problem=8\left	!	!	!	!	!	!	!
8E'>\J	.	.	8b'>\J 8dd\	.	.	.	.
=51	=51	=51	=51	=51	=51	=51	=51
!LO:TX:t=P:problem=8\left	!	!	!LO:TX:t=P:problem=all\right&colon; global	!	!LO:TX:t=P:problem=all\middle&colon; global	!	!
8AA'>\L	.	.	(>8.cc\L 8.ee\	.	8eeettt>\L	.	.
8E'>\	.	.	.	.	(>64aaa\LLL	.	.
.	.	.	.	.	64ggg\	.	.
.	.	.	.	.	64fff\	.	.
.	.	.	.	.	64eee\	.	.
.	.	.	16b\Jk) 16dd\	.	64ddd\	.	.
.	.	.	.	.	64ccc\	.	.
.	.	.	.	.	64bb\	.	.
.	.	.	.	.	64aa\	.	.
8A'>\	.	.	8cc\L 8ee\	.	64gg\	.	.
.	.	.	.	.	64ff\	.	.
.	.	.	.	.	64ee\	.	.
.	.	.	.	.	64dd\	.	.
.	.	.	.	.	64cc\	.	.
.	.	.	.	.	64b\	.	.
.	.	.	.	.	64a\	.	.
.	.	.	.	.	64g\	.	.
!LO:TX:t=P:problem=8\left	!	!	!LO:TX:t=P:problem=8\left	!	!	!	!
8AA'>\J	.	.	8a\J 8cc\ 8aa\	.	64f\	.	.
.	.	.	.	.	64e\	.	.
.	.	.	.	.	64d\	.	.
.	.	.	.	.	64c\	.	.
.	.	.	.	.	64B\	.	.
.	.	.	.	.	64A\JJJJ)	.	.
.	.	.	.	.	32ryy	.	.
!!LO:LB:g=original
=52	=52	=52	=52	=52	=52	=52	=52
!	!	!	!	!	!LO:TX:t=P:problem=all\right&colon; global	!	!
!LO:TX:t=P:problem=all\left&colon; global	!	!	!	!	!LO:TUP:a:problem=klamra łukowa	!	!
8EE\L	.	.	4g#X/ 4b/ 4gg#X/	.	(>24G#X\LL	.	<
.	.	.	.	.	24B\	.	.
!	!	!	!	!	!LO:TX:t=P:problem=all\middle&colon; global	!	!
.	.	.	.	.	24e\	.	.
!	!	!	!	!	!LO:TUP:a:problem=klamra łukowa	!	!
8BB'>\J	.	.	.	.	24g#X\	.	.
.	.	.	.	.	24b\	.	.
.	.	.	.	.	24ee\JJ	.	.
!	!	!	!	!LO:DY:a:rj:t=sf.	!LO:TUP:a:problem=klamra łukowa	!	!
4EE\ 4E\	.	.	4G</ 4B/ 4g#/	sf	24gg#X\LL	.	.
.	.	.	.	.	24bb\	.	.
*	*	*	*	*	*8va	*	*
.	.	.	.	.	24eee\	.	.
!	!	!	!	!	!LO:TUP:a:problem=klamra łukowa	!	!
.	.	.	.	.	24ggg#X\	.	.
.	.	.	.	.	24bbb\	.	.
.	.	.	.	.	24eeee\JJ)	0	[[
*	*	*	*	*	*X8va	*	*
=53	=53	=53	=53	=53	=53	=53	=53
!LO:TX:t=P:problem=tryl z krzyżykiewm	!	!	!	!	!LO:TX:t=P:problem=8\right	!	!
2GGTT<\	.	.	[>4D<^>/	.	(>8.Gn\L 8.d\ 8.ggn\ 8.bb\	.	.
!	!	!	!	!LO:DY:rj	!	!	!
.	.	.	.	f	16dd'>\Jk) 16aa\	.	.
!	!	!	!	!	!	!	!LO:DY:rj:t=f.
.	.	.	4D<^>/] 4B</ 4d</	.	(>8b'>\L 8gg\	.	f
.	.	.	.	.	8dd'>\J) 8aa\	.	.
=54	=54	=54	=54	=54	=54	=54	=54
2GG\TTT<	.	.	[>4D</	.	(>8.gg\L 8.bb\	.	.
!	!	!	!	!	!LO:TX:t=P:problem=16\right	!	!
.	.	.	.	.	16dd'>\Jk) 16aa\	.	.
.	.	.	4D</] 4B</ 4d</	.	(>8b'>\L 8gg\	.	.
.	.	.	.	.	8dd'>\J) 8aa\	.	.
=55	=55	=55	=55	=55	=55	=55	=55
2GG\TTT<	.	.	4D</	.	(>8.gg\L 8.bb\	.	.
.	.	.	.	<	16dd'>\Jk) 16aa\	.	.
.	.	.	8B/L 8d/	[[	(>8gg'>\L 8bb\	.	.
.	.	.	8A/J 8c#X/ 8a/	.	8a'>\J) 8ee\ 8ccc#X\	.	.
=56	=56	=56	=56	=56	=56	=56	=56
!	!	!	!	!	!LO:TX:t=P:problem=8\left	!	!
4FF#X\	.	.	8A/L 8d/ 8a/	.	8d\ 8dd\ 8ddd\	.	.
!	!	!	!	!	!LO:TUP:a:problem=klamra łukowa	!	!
.	.	.	8A/J 8d/	.	(>24d\LL	.	<
.	.	.	.	.	24f#X\	.	.
.	.	.	.	.	24a\JJ	.	.
!	!	!	!	!LO:DY:a:t=sf.	!LO:TUP:a:problem=klamra łukowa	!	!
4F#X\	.	.	4A/ 4d/ 4a/	sf	24dd\LL	.	.
.	.	.	.	.	24ff#X\	.	.
.	.	.	.	.	24aa\	.	.
.	.	.	.	.	32ddd\L	.	.
*	*	*	*	*	*8va	*	*
.	.	.	.	.	32fff#X\	.	.
.	.	.	.	.	32aaa\	.	.
.	.	.	.	.	32dddd\JJJ)	.	[[
*	*	*	*	*	*X8va	*	*
!!LO:LB:g=original
=57	=57	=57	=57	=57	=57	=57	=57
*^	*	*	*	*	*	*	*
*	*	*	*	*ped	*	*	*	*
8r	[<2BBB-X\ [>2BB-X\	.	.	8r	.	8r	.	.
!	!	!	!	!	!	!LO:TX:t=P:problem=all\right&colon; global	!	!
8Fn/ 8B-X 8d	.	.	.	8f/ 8b-X/ 8ff/	.	4d\ 4ffn\ 4fffn\	.	.
4d>\ 4f>\ 4b>\ 4dd>\	.	.	.	[4ff/ [4bb-X [4fff	.	.	.	.
!	!	!	!	!	!	!	!	!LO:DY:rj
.	.	.	.	.	.	(>8ff\ 8ddd\	.	ff
=58	=58	=58	=58	=58	=58	=58	=58	=58
2d>\ 2f>\ 2b>\ 2dd>\	2BBB-\] 2BB-]	.	.	2ff/] 2bb-] 2fff]	.	8dd\L) 8bb-X\	.	.
.	.	.	.	.	.	8b-X\ 8ff\	.	.
.	.	.	.	.	.	(>8f\ 8dd\	.	.
*X	*	*	*	*Xped	*	*	*	*
.	.	.	.	.	.	8d\J) 8b-\	.	.
*v	*v	*	*	*	*	*	*	*
=59	=59	=59	=59	=59	=59	=59	=59
!	!	!	!	!LO:DY:b:t=p.	!LO:TX:t=P:problem=all\left&colon; global	!	!
4BB-X\	.	.	8r	p	16b-X\LL 16dd\	.	.
.	.	.	.	.	16cc\JJ 16ee\	.	.
.	.	.	8F</ 8B-X< 8d<	.	(>4dd\ 4ff\	.	.
4D\	.	.	8r	.	.	.	.
.	.	.	8F</ 8B-< 8f<	.	8b-\) 8dd\	.	.
=60	=60	=60	=60	=60	=60	=60	=60
!	!	!	!	!	!LO:TUP:a:problem=klamra łukowa	!	!
4F\	.	.	8r	.	24b-X\LL 24dd\	.	.
.	.	.	.	.	24cc\ 24ee\	.	.
.	.	.	.	.	24b-\JJ 24dd\	.	.
!	!	!	!	!	!LO:TX:t=P:problem=all\right&colon; global	!	!
.	.	.	8A</ 8c< 8e<	.	(>4a\ 4cc\	.	.
4FF\	.	.	8r	.	.	.	.
.	.	.	8c/ 8f 8a	.	8a'>\) 8cc\	.	.
=61	=61	=61	=61	=61	=61	=61	=61
*^	*	*	*	*	*	*	*
*	*	*	*	*ped	*	*	*	*
8r	[<2FFF\ [>2FF	.	.	8r	.	8r	.	.
8C/ 8F 8A	.	.	.	8c/ 8f 8cc	.	4a\ 4ff\ 4ccc\	.	f
[<4A>\ [<4f> [<4a>	.	.	.	[<4cc/ [>4ff [>4ccc	.	.	.	f
.	.	.	.	.	.	(>8ff\ 8aa\	.	.
=62	=62	=62	=62	=62	=62	=62	=62	=62
!	!	!	!	!	!	!LO:TX:t=P:problem=8\left	!	!
2A>\] 2f>] 2a>]	2FFF\] 2FF]	.	.	2cc/] 2ff] 2ccc]	.	8cc\L) 8ff\	.	>
.	.	.	.	.	.	8a\ 8cc\	.	.
.	.	.	.	.	.	(>8f\ 8a\	.	.
*	*	*	*	*Xped	*	*	*	*
.	.	.	.	.	.	8c\J) 8f\	.	]]
*v	*v	*	*	*	*	*	*	*
!!LO:LB:g=original
=63	=63	=63	=63	=63	=63	=63	=63
!LO:TX:t=P:problem=all\middle&colon; global	!	!	!	!	!	!	!
4FF\	.	.	8r	>	16f/LL 16a	.	.
.	.	.	.	.	16g/JJ 16b	.	.
!	!	!	!	!	!LO:TX:t=P:problem=all\middle&colon; global	!	!
.	.	.	8A</ 8c< 8f<	.	4a\ 4cc	.	.
4BB\	.	.	8r	.	.	.	.
.	.	.	8A/ 8d 8f#X	.	8f/ 8a	.	.
=64	=64	=64	=64	=64	=64	=64	=64
!	!	!	!	!	!LO:TUP:b:problem=klamra łukowa	!	!
8EE\L	.	.	8r	.	24f/LL 24a	.	.
.	.	.	.	.	24g/ 24b	.	.
.	.	.	.	.	24f/JJ 24a	.	.
!	!	!	!	!LO:HP:a	!	!	!
8BB\	.	.	(<4G#X/ (>4e	>	4e/u< 4g#X	.	.
8BBB\	.	.	.	.	.	.	.
!	!	!	!	!	!LO:TX:a:t=IV	!	!
8BB\J	.	.	8A/) 8d#X) 8f	]]	8bb/	0	.
=65	=65	=65	=65	=65	=65	=65	=65
!	!	!	!	!	!LO:TUP:a:problem=klamra łukowa	!	!
8EE\L	.	.	8r	.	24ff\LL 24aa	.	.
.	.	.	.	.	24bb\	.	.
.	.	.	.	.	24ff\JJ 24aa	.	.
!	!	!	!	!LO:HP:a	!	!	!
8BB\	.	.	(<4G#X/ (>4e	>	4ee\ 4gg#X	.	.
8BBB\	.	.	.	.	.	.	.
!	!	!	!	!	!LO:TUP:a:problem=klamra łukowa	!	!
8BB\J	.	.	8A/) 8f#X)	]]	48a\LLL	.	.
.	.	.	.	.	48dd\	.	.
.	.	.	.	.	48bb\	.	.
.	.	.	.	.	48aa\	.	.
.	.	.	.	.	48ddd#X\	.	.
.	.	.	.	.	48bbb\JJJ	.	.
=66	=66	=66	=66	=66	=66	=66	=66
*	*	*	*	*	*8va	*	*
4EE\	.	.	8r	.	(>8bbb\L	.	<
.	.	.	4G#X/ 4e	.	8eeee\J)	.	[[
!LO:TX:t=P:4\left:problem	!	!	!	!	!	!	!
4E\	.	.	.	.	[<4eeee\	.	.
.	.	.	8B/ 8e 8g#X	.	.	.	.
=67	=67	=67	=67	=67	=67	=67	=67
!	!	!	!	!LO:DY:t=p.	!LO:TX:b:i:t=gliss.	!	!
2EE\ 2E	.	.	2B/ 2g#X 2b	p >	(<64eeee\LLLL]	.	.
.	.	.	.	.	64eeee-X\	.	.
.	.	.	.	.	64dddd\	.	.
.	.	.	.	.	64dddd-X\	.	.
.	.	.	.	.	64cccc\	.	.
.	.	.	.	.	64bbb\	.	.
.	.	.	.	.	64bbb-X\	.	.
.	.	.	.	.	64aaa\	.	.
.	.	.	.	.	64ggg#X\	.	.
.	.	.	.	.	64gggn\	.	.
*	*	*	*	*	*X8va	*	*
!	!	!	!	!	!LO:TX:a:t=loco	!	!
.	.	.	.	.	64fff#X\	.	.
.	.	.	.	.	64fffn\	.	.
.	.	.	.	.	64eee\	.	.
.	.	.	.	.	64eee-X\	.	.
.	.	.	.	.	64ddd\	.	.
.	.	.	.	.	64ccc#X\	.	.
.	.	.	.	.	64cccn\	.	.
.	.	.	.	.	64bb\	.	.
.	.	.	.	.	64bb-X\	.	.
.	.	.	.	]	64aa\	.	.
.	.	.	.	.	64gg#X\	.	.
.	.	.	.	.	64ggn\	.	.
.	.	.	.	.	64ff#X\JJJJ)	.	.
.	.	.	.	.	64ryy	.	.
.	.	.	.	.	8ryy	.	.
!!LO:PB:g=original
=68	=68	=68	=68	=68	=68	=68	=68
.	.	.	.	.	(>16qqff\LL	.	.
!	!	!	!	!	!LO:TX:a:t=Tempo 1o.	!	!
.	.	.	.	.	16qqee\JJ)	.	.
*^	*	*	*^	*	*	*	*
8r	2GG\	.	.	4r	4ryy	.	(>8ddv>\L	.	.
(<8G/	.	.	.	.	.	.	8ee\)	.	.
!	!	!	!	!	!LO:TX:t=P:problem=all\left&colon; global	!	!	!	!
4G/)	.	.	.	(>8a^>/L	4B\ 4f\	.	8ff\	.	.
.	.	.	.	8b/J)	.	.	(>16ee~>\L	.	.
.	.	.	.	.	.	.	16dd~>\JJ	.	.
=69	=69	=69	=69	=69	=69	=69	=69	=69	=69
!	!	!	!	!	!	!	!LO:TX:t=P:problem=8\right	!	!
8r	2C\	.	.	4r	4ryy	.	8ee~>\)	.	<
!	!	!	!	!	!	!	!LO:TX:t=P:problem=all\left&colon; global	!	!
(<8G/	.	.	.	.	.	.	(>4gg\	.	.
4G/)	.	.	.	(>8b^>/L	4c\ 4e\	.	.	.	[
.	.	.	.	8cc/J)	.	.	8ee\)	4	.
=70	=70	=70	=70	=70	=70	=70	=70	=70	=70
8r	2FF\	.	.	4r	4ryy	.	8dd\L	.	.
(<8A/	.	.	.	.	.	.	8cc\	.	>
4A/)	.	.	.	(>8dd^>/L	4f\ 4a\	.	(>8a\	4	.
.	.	.	.	8dd#X/J)	.	.	8cc\J)	4	]
*	*	*	*	*v	*v	*	*	*	*
=71	=71	=71	=71	=71	=71	=71	=71	=71
.	.	.	.	.	.	(<8qcc/	.	.
8r	2C\	.	.	4r	.	2g^>/)	.	.
!LO:TX:t=P:problem=nie wyświetla się palcowanie	!	!	!	!	!	!	!	!
(<8G/	.	3	.	.	.	.	.	.
4G\) 4e>\ 4g>\	.	1	.	(>8ee^>/L	.	.	.	.
.	.	.	.	8gg/J)	.	.	.	.
=72	=72	=72	=72	=72	=72	=72	=72	=72
8r	2C\	.	.	4r	.	8dd\L	.	<
(<8G/	.	.	.	.	.	8ee\	.	.
.	.	.	.	.	.	(>(<16qqff/LL	.	.
.	.	.	.	.	.	16qqgg/JJ)	.	.
!	!	!	!	!LO:TX:t=P:problem=all\middle&colon; global	!	!	!	!
4G/) 4f/	.	.	.	(>8a-X\L [>\8ff 8aa-X\	<	8ff\	.	.
.	.	.	.	8b\J) 8ff\] 8bb\	.	16ee\L	.	.
.	.	.	.	.	<	16dd\JJ	.	[[
=73	=73	=73	=73	=73	=73	=73	=73	=73
!	!	!	!	!	!	!LO:TX:b:i:t=espres.	!	!
8r	2C\	.	.	4r	.	8ee\)	.	.
(<8A/	.	.	.	.	[	(>4aa\	.	.
!	!	!	!	!LO:TX:t=P:problem=8\right	!	!	!	!
4A/) 4e/	.	.	.	(>8cc\L 8aan\ 8ccc\	.	.	.	.
!	!	!	!	!LO:TX:t=P:problem=8\left	!	!	!	!
.	.	.	.	8ee\J) 8eee\	[[	8ee\)	.	.
!!LO:LB:g=original
=74	=74	=74	=74	=74	=74	=74	=74	=74
!	!	!	!	!	!	!LO:TX:t=P:problem=all\left&colon; global	!	!
8r	2AA\	.	.	8r	.	8ddM>\L	.	.
!	!	!	!	!LO:TX:t=P:problem=all\middle&colon; global	!	!	!	!
!	!	!	!	!LO:TX:b:i:t=espres.	!	!	!	!
(<8E/	.	.	.	(>8ff#X\L 8aa\ 8fff#X\	.	8cc\	.	.
4A/) 4c/ 4f#X/	.	.	.	8ee\ 8eee\	.	(>8dd\	.	.
.	.	.	.	8cc\J) 8ccc\	.	8ee\J)	.	.
=75	=75	=75	=75	=75	=75	=75	=75	=75
.	.	.	.	.	.	(<8qee/	.	.
!	!LO:TX:t=P:problem=4\middle&colon; global	!	!	!	!	!	!	!
8r	4EE;>\	.	.	8r	.	4.b;>/)	.	.
!	!	!	!	!LO:TX:b:i:t=rit.	!	!	!	!
4E/	.	.	.	(>8b/L 8gg#X/ 8bb/	.	.	.	.
.	4ryy	.	.	8b/) 8ee/ 8gg#/	.	.	.	.
!	!	!	!	!LO:TX:a:t=Vivace.	!	!LO:TX:a:t=Vivace	!	!
8r	.	.	.	8g/J 8b/	.	8ee\	.	.
*v	*v	*	*	*	*	*	*	*
=76	=76	=76	=76	=76	=76	=76	=76
2Gn\	.	.	8r	.	4gg\	.	.
.	.	.	8d/ 8gn/ 8b/	.	.	.	.
.	.	.	.	.	(<8qb/	.	.
!	!	!	!	!	!	!	!LO:DY:a:t=pp.
.	.	.	8r	.	8dd\L)	.	pp
.	.	.	.	.	(<8qb-X/	.	.
.	.	.	8c#X/ 8g/ 8b-X/	.	8ee\J)	.	.
=77	=77	=77	=77	=77	=77	=77	=77
.	.	.	.	.	(>8qa/	.	.
!	!	!	!	!	!LO:TX:t=P:problem=all\middle&colon; global	!	!
2D\	.	.	8r	.	8ff\L)	.	.
.	.	.	.	.	(>16qqff/LL	.	.
.	.	.	.	.	16qqgg/JJ)	.	.
.	.	.	8d/ 8f/ 8a/	.	8ff\	.	.
.	.	.	8r	.	(>8ee\	.	.
.	.	.	8f/ 8a/ 8dd/	.	8dd\J	.	.
=78	=78	=78	=78	=78	=78	=78	=78
2G\	.	.	8r	.	8gg\L)	.	.
.	.	.	.	.	(>16qqgg/LL	.	.
.	.	.	.	.	16qqaa/JJ	.	.
.	.	.	8d/ 8g/ 8b/	.	8gg\	.	.
.	.	.	.	.	8qb/	.	.
.	.	.	8r	.	8dd\)	.	.
.	.	.	.	.	(>8qb-X/	.	.
.	.	.	8c#X/ 8g/ 8b-X/	.	8ee\J)	.	.
=79	=79	=79	=79	=79	=79	=79	=79
.	.	.	.	.	(>8qa/	.	.
4D\	.	.	8r	.	8ff\L)	.	.
.	.	.	.	.	(<16qqff/LL	.	.
.	.	.	.	.	16qqgg/JJ)	.	.
.	.	.	8d/ 8f/ 8a/	.	8ff\	.	.
!LO:TX:t=P:problem=all\left&colon; global	!	!	!	!	!LO:TX:t=P:problem=all\left&colon; global	!	!
4E\	.	.	8r	.	(>8ee\	.	.
.	.	.	8B/ 8e/ 8g#X/	.	8dd\J	.	.
!!LO:LB:g=original
=80	=80	=80	=80	=80	=80	=80	=80
4A\	.	.	8r	.	8cc\L)	.	.
.	.	.	.	.	16qqcc/LL	.	.
.	.	.	.	.	16qqdd/JJ	.	.
.	.	.	8c/ 8e/ 8a/	.	(>8cc~>\	.	.
!	!	!	!	!	!LO:TX:t=P:problem=all\middle&colon; global	!	!
4D\	.	.	8r	.	8b~>\	.	.
.	.	.	8c/ 8e-X/ 8f#X/	.	8a~>\J	.	.
=81	=81	=81	=81	=81	=81	=81	=81
8G\L	.	.	8B/L 8d/ 8g/	.	8g/L)	.	.
!	!	!	!LO:TX:b:i:t=ritar.	!	!	!	!
(>8D\	.	.	(<8c/ (>/8f#X	.	(<8b/	.	.
!	!	!	!	!	!LO:TX:i:b:t=rit	!	!
8G\)	.	.	8B/) 8g/)	.	8g/)	.	.
(>8D\J	.	.	(<8c/J (>/8f#	.	(<8b/J	.	.
=82	=82	=82	=82	=82	=82	=82	=82
*^	*	*	*	*	*	*	*
8r	2GG\)	.	.	8B/) 8g/)	.	8g/L)	.	.
.	.	.	.	.	.	(<16qqg/LL	.	.
.	.	.	.	.	.	16qqa/JJ)	.	.
8D/	.	.	.	8B/ 8g/	.	8g/	.	.
!	!	!	!	!	!	!LO:TX:b:i:t=rit.	!	!
8r	.	.	.	8r	.	(<8f/	.	.
8C#X/	.	.	.	8A#X/ 8e/	.	8e/J	.	.
=83	=83	=83	=83	=83	=83	=83	=83	=83
2D/	8GG\L	.	.	8B/L 8d/	.	8d/L)	.	.
.	(>8DD\	.	.	(<8A/ (>/8f	.	(<8f/	.	.
.	8GG\)	.	.	8B/) 8d/)	.	8d/)	.	.
.	8DD\J	.	.	8A/J 8f/	.	(<8f/J	.	.
*v	*v	*	*	*	*	*	*	*
.	.	.	.	.	8qqG/)	.	.
=84	=84	=84	=84	=84	=84	=84	=84
!	!	!	!	!	!LO:TX:a:t=Cadenza	!	!
4r	.	.	4r	.	2G;<u>/	.	.
4GGG\ 4GG\	.	.	4D<;>/ 4G</ 4B</ 4d</	.	.	.	.
=85-	=85-	=85-	=85-	=85-	=85-	=85-	=85-
1r	.	.	1r	.	(>16G/LL	.	<
.	.	.	.	.	16f/	.	.
.	.	.	.	.	16ee/	.	.
.	.	.	.	.	16dd/JJ	.	.
.	.	.	.	.	16cc\LL	.	.
.	.	.	.	.	16b\	.	.
.	.	.	.	.	16aa\	.	.
.	.	.	.	.	16gg\JJ	.	.
=86-	=86-	=86-	=86-	=86-	=86-	=86-	=86-
.	.	.	.	.	16ff\LL	.	.
.	.	.	.	.	16dd\	.	.
.	.	.	.	.	16ccc\	.	.
.	.	.	.	.	16bb\JJ	.	.
.	.	.	.	.	16aa\LL	.	.
.	.	.	.	.	16ff\	.	.
.	.	.	.	.	16eee\	.	.
.	.	.	.	.	16ddd\JJ)	.	[[
!!LO:LB:g=original
=87	=87	=87	=87	=87	=87	=87	=87
!	!	!	!	!	!>LO:TX:t=P:problem=all\middle&colon; global	!	!
1r	.	.	1r	.	(16ccc\LL	.	.
.	.	.	.	.	16bb\	.	.
.	.	.	.	.	16aa\	.	>
.	.	.	.	.	16ff#X\JJ	.	.
.	.	.	.	.	16aa\LL	.	.
.	.	.	.	.	16gg\	.	.
.	.	.	.	.	16ffn\	.	.
.	.	.	.	.	16dd\JJ	.	.
=88-	=88-	=88-	=88-	=88-	=88-	=88-	=88-
.	.	.	.	.	16ee\LL	.	.
.	.	.	.	.	16dd\	.	.
.	.	.	.	.	16cc\	.	.
.	.	.	.	.	16b\JJ	.	.
.	.	.	.	.	16dd\LL	.	]
.	.	.	.	.	16cc\)	.	.
.	.	.	.	.	16a\	.	.
.	.	.	.	.	16f#X\JJ	.	.
=89-	=89-	=89-	=89-	=89-	=89-	=89-	=89-
2ryy	.	.	2ryy	.	(>32g\LLL	.	.
.	.	.	.	.	32b\	.	.
.	.	.	.	.	32a#X\	.	<
.	.	.	.	.	32cc\	.	.
.	.	.	.	.	32b\	.	.
.	.	.	.	.	32dd\	.	.
.	.	.	.	.	32cc#X\	.	.
.	.	.	.	.	32ee\JJJ	.	.
.	.	.	.	.	32dd\LLL	.	.
.	.	.	.	.	32gg\	.	.
.	.	.	.	.	32ff#X\	.	.
.	.	.	.	.	32aa\	.	.
.	.	.	.	.	32gg\	.	.
.	.	.	.	.	32bb\	.	.
.	.	.	.	.	32aa#X\	.	.
.	.	.	.	.	32ccc\JJJ	.	.
=90-	=90-	=90-	=90-	=90-	=90-	=90-	=90-
2ryy	.	.	2ryy	.	32bb\LLL	.	.
.	.	.	.	.	32ddd\	.	.
.	.	.	.	.	32ccc#X\	.	.
.	.	.	.	.	32eee\	.	.
*	*	*	*	*	*8va	*	*
.	.	.	.	.	32ddd\	.	.
.	.	.	.	.	32ggg\	.	.
.	.	.	.	.	32fff#X\	.	.
.	.	.	.	.	32aaan\JJJ	.	.
.	.	.	.	.	32ggg\LLL	.	.
.	.	.	.	.	32bbb\	.	.
.	.	.	.	.	32aaa#X\	.	.
.	.	.	.	.	32cccc\	.	.
.	.	.	.	.	32bbb\	.	.
.	.	.	.	.	32dddd\	.	.
.	.	.	.	.	32cccc#X\	.	.
.	.	.	.	.	32eeee\JJJ	.	.
=91-	=91-	=91-	=91-	=91-	=91-	=91-	=91-
2ryy	.	.	2ryy	.	4dddd\)	.	.
.	.	.	.	.	4gggg;>\	.	[
*	*	*	*	*	*X8va	*	*
=92-	=92-	=92-	=92-	=92-	=92-	=92-	=92-
2ryy	.	.	2ryy	.	4ryy	.	.
!	!	!	!	!	!LO:TX:a:t=P:problem=tryl bez kasownika	!	!
!	!	!	!	!	!LO:TX:a:t=loco	!	!
.	.	.	.	.	[>4ggTT\	.	.
!!LO:PB:g=original
=93	=93	=93	=93	=93	=93	=93	=93
*^	*	*	*	*	*	*	*
!	!	!	!	!LO:TX:t=P:problem=all\right&colon; global	!	!LO:TX:t=P:4\left:problem	!	!
!	!	!	!	!LO:TX:a:t=a Tempo	!LO:HP:a	!LO:TX:a:t=a Tempo	!	!
4r	2CC\ 2GG\	.	.	(8d\L 8g\ 8b\ 8dd\	mf <	4ggTT>\]	.	.
.	.	.	.	8e\ 8ee\	.	.	.	.
!LO:TX:t=P:4\left:problem	!	!	!	!	!	!	!	!
4G\ 4B\	.	.	.	8f\ 8g\ 8b\ 8ff\	[	8aa\L	.	.
!	!	!	!	!LO:TX:a:i:t=con espressione.	!	!	!	!
.	.	.	.	16e\L 16ee\	.	8bb\J	.	.
.	.	.	.	16d\JJ) 16dd\	.	.	.	.
=94	=94	=94	=94	=94	=94	=94	=94	=94
4r	2CC\ 2GG\	.	.	(>8e\ 8g\ 8cc\ 8ee\	<	8ccc\L	.	<
.	.	.	.	4g\ 4gg\	.	8ddd\	.	.
4C/ 4G/ 4c/	.	.	.	.	.	(>8eee\	.	.
!	!	!	!	!LO:TX:t=P:problem=8\left	!	!	!	!
.	.	.	.	8d\) 8ee\	[	8ggg\J)	.	[[
*v	*v	*	*	*	*	*	*	*
=95	=95	=95	=95	=95	=95	=95	=95
*	*	*	*	*	*8va	*	*
*^	*	*	*	*	*	*	*
4r	2CC\ 2FF\	.	.	8d/L 8f/ 8a/ 8dd/	.	(>8aaa\L	.	.
.	.	.	.	8c/ 8cc/	>	8bbb\	.	.
4C/ 4F/	.	.	.	8A/ 8f/ 8a/	.	8cccc\)	.	.
.	.	.	.	8c/J 8cc/	]	16bbb\L	.	.
.	.	.	.	.	.	16aaa\JJ	.	.
*v	*v	*	*	*	*	*	*	*
=96	=96	=96	=96	=96	=96	=96	=96
.	.	.	8qcc/	.	.	.	.
(>8CC\L 8GG\	.	.	2G^>/ 2e/ 2g/	.	(>4.eeee\	.	.
8E\	.	.	.	.	.	.	.
8C\	.	.	.	.	.	.	.
8GG\J)	.	.	.	.	8eee\)	.	.
*	*	*	*	*	*X8va	*	*
=97	=97	=97	=97	=97	=97	=97	=97
*^	*	*	*	*	*	*	*
!	!	!	!	!	!	!LO:TX:a:t=loco	!	!
4r	2CC\ 2GG	.	.	(>8d\L 8g\ 8b\ 8dd\	.	(>4ggg\	.	.
!	!	!	!	!LO:TX:t=P:problem=8\left	!	!	!	!
.	.	.	.	8e\ 8ee\	.	.	.	.
4G/ 4B/	.	.	.	8f\ 8g\ 8b\ 8gg\	.	8ddd\L)	.	.
!	!	!	!	!LO:TX:t=P:problem=16\left	!	!	!	!
.	.	.	.	16e\L 16ee\	.	(>8eee\J	.	.
!	!	!	!	!LO:TX:t=P:problem=all\middle&colon; global	!	!	!	!
.	.	.	.	16d\JJ) 16dd\	.	.	.	.
=98	=98	=98	=98	=98	=98	=98	=98	=98
!	!	!	!	!LO:TX:t=P:problem=8\right	!	!	!	!
4r	2CC\ 2GG\	.	.	(>8e\L 8g\ 8cc\ 8ee\	.	8ccc\L)	.	.
.	.	.	.	8f\ 8ff\	.	8aa\	.	.
4G/ 4c/	.	.	.	8e\ 8cc\ 8ee\	.	(>8gg\	.	.
!	!	!	!	!	!	!LO:TX:t=P:problem=8\left	!	!
.	.	.	.	8g\J) 8gg\	.	8ee\J	.	.
!!LO:LB:g=original
=99	=99	=99	=99	=99	=99	=99	=99	=99
!	!	!	!	!LO:TX:t=P:4\right:problem	!	!LO:TX:t=P:problem=8\right	!	!
4G/	2C\	.	.	4g\ 4b\ 4ff\ 4gg\	.	8gg\L)	.	.
!	!	!	!	!	!	!LO:TX:t=P:problem=all\middle&colon; global	!	!
.	.	.	.	.	.	16ff\L	.	.
.	.	.	.	.	.	16ee\J	.	.
4A-X/	.	.	.	(<4B/ 4f/ (>/4b	.	(>8dd\	.	.
.	.	.	.	.	.	8ee\J	.	.
=100	=100	=100	=100	=100	=100	=100	=100	=100
!	!	!	!	!	!	!LO:TX:t=P:problem=8\right&colon; global	!	!
2G/	2C\	.	.	8c/L) 8e/ (>/8cc)	.	8cc\L)	.	.
!	!	!	!	!	!	!LO:TX:b:i:t=allargando e dim	!	!
.	.	.	.	8f/	.	(>8a-X\J	.	.
.	.	.	.	8e/	.	4cc\)	.	.
.	.	.	.	8c/J)	.	.	.	.
=101	=101	=101	=101	=101	=101	=101	=101	=101
!	!	!	!	!	!	!LO:TX:t=P:problem=all\middle&colon; global	!	!
8r	2CC\ 2GG	.	.	8r	.	(>4gg\	.	.
(<16G/LL	.	.	.	[<8B/ [>/8f	.	.	.	.
16A/JJ	.	.	.	.	.	.	.	.
4G/)	.	.	.	4B/] 4f/]	.	8dd\L	.	.
.	.	.	.	.	.	8ee\J)	.	.
=102	=102	=102	=102	=102	=102	=102	=102	=102
!	!	!	!	!	!	!LO:TX:t=P:problem=all\right&colon; global	!	!
8r	2CC\ 2GG	.	.	8r	.	8cc\L	.	.
(<16G/LL	.	.	.	[<8c/ [>/8e	.	8a\	.	.
16A/JJ	.	.	.	.	.	.	.	.
4G/)	.	.	.	4c/] 4e/]	.	(>8g\	.	<
.	.	.	.	.	.	8e\J	.	.
*v	*v	*	*	*	*	*	*	*
=103	=103	=103	=103	=103	=103	=103	=103
!LO:TX:t=P:problem=all\left&colon; global	!	!	!	!	!LO:TX:a:i:t=sol. G.:rj	!	!
4CC#X\	.	.	(>4G</ 4B-X</ 4e</	.	8g/L)	.	.
.	.	.	.	.	16f/L	.	[
.	.	.	.	.	16e/J	.	.
!	!	!	!	!LO:DY:a	!	!	!
4DD\	.	.	4F</ 4A</ 4d</	<[	(<8d/	.	.
.	.	.	.	.	8e/J)	.	.
=104	=104	=104	=104	=104	=104	=104	=104
!	!	!	!	!LO:DY:a	!	!	!
4GGG\	.	.	4F</ 4A-X</ 4d</	>	(<4f/	.	.
!	!	!	!	!	!LO:TX:t=lar-go.:dur=2q:ext=ud:problem=text with extention lines	!	!
4GG\	.	.	4F</) 4G</ 4B</	]	8e/L	.	.
.	.	.	.	.	8d/J)	.	.
!!LO:LB:g=original
=105	=105	=105	=105	=105	=105	=105	=105
!LO:TX:t=P:problem=all\middle&colon; global	!	!	!	!	!	!	!LO:HP:a
4CC\	.	.	(>4E</ 4G</ 4c</	.	(<8c/	.	<
.	.	.	.	.	4G/	.	.
4GG\	.	.	4F</ 4G</ 4B</	.	.	.	.
!	!	!	!	!	!LO:TUP:b:problem=klamra łukowa	!	!
.	.	.	.	.	24d/LL	.	[
.	.	.	.	.	24f/	.	.
.	.	.	.	.	24e/JJ)	.	.
=106	=106	=106	=106	=106	=106	=106	=106
!	!	!	!	!	!	!	!LO:HP:a
4CC\	.	.	4E</ 4G</ 4c</	.	(<8c/L	.	<
.	.	.	.	.	8G/	.	.
4FF\	.	.	4D</) 4A-X</ 4c</	.	8A-X/	.	.
!	!	!	!	!	!LO:TUP:b:problem=klamra łukowa	!	!
.	.	.	.	.	24d/L	.	[
.	.	.	.	.	24f/	.	.
.	.	.	.	.	24e/JJ)	.	.
=107	=107	=107	=107	=107	=107	=107	=107
!	!	!	!	!LO:DY:rj:t=p.	!LO:TX:a:t=G.	!	!
[<2CC\ [>2GG\	.	.	(>8E</L 8c</	p	[<2g/	.	.
.	.	.	8C</	.	.	.	.
.	.	.	8F</	.	.	.	.
.	.	.	8E</J	.	.	.	.
=108	=108	=108	=108	=108	=108	=108	=108
!	!	!	!LO:TUP:b:problem=klamra łukowa	!	!	!	!
2CC\] 2GG\]	.	.	24D</LL	.	2g/_<	.	.
.	.	.	24E</	.	.	.	.
.	.	.	24D</J	.	.	.	.
.	.	.	8C</	.	.	.	.
.	.	.	8E</	.	.	.	.
.	.	.	8G</J)	.	.	.	.
=109	=109	=109	=109	=109	=109	=109	=109
*	*	*	*	*	*^	*	*
!LO:TX:t=P:problem=all\left&colon; global	!	!	!	!LO:DY:rj:t=pp.	!	!LO:TX:t=P:problem=all\middle&colon; global	!	!
4CC\ 4GG\ 4C\	.	.	4G</ 4c</ 4e</	pp	(>4g/]	16g\LL	.	.
!	!	!	!	!	!	!	!	!LO:DY:t=pp.
.	.	.	.	.	.	16cc\	.	pp
.	.	.	.	.	.	16ff\	.	.
.	.	.	.	.	.	16ee\JJ	.	.
!	!	!	!	!	!LO:TUP:a:problem=klamra łukowa	!	!	!
4FF\ 4C\ 4F\	.	.	4A</ 4c/ 4a/	.	4ryy	48dd\LLL	.	.
.	.	.	.	.	.	48ee\	.	.
.	.	.	.	.	.	48dd\J	.	.
.	.	.	.	.	.	16cc\	.	.
.	.	.	.	.	.	16ff\	.	.
.	.	.	.	.	.	16aa\JJ	.	.
*	*	*	*	*	*v	*v	*	*
=110	=110	=110	=110	=110	=110	=110	=110
4CC\ 4GG\ 4C\	.	.	4G</ 4c/ 4e/	.	16gg\LL	.	.
.	.	.	.	.	16ccc\	.	.
.	.	.	.	.	16fff\	.	.
.	.	.	.	.	16eee\JJ	.	.
!	!	!	!	!LO:DY:rj:t=pp.	!LO:TUP:a:problem=klamra łukowa	!	!
4FF\ 4C\ 4F\	.	.	4A</ 4c/ 4a/	pp	48ddd\LLL	.	.
.	.	.	.	.	48eee\	.	.
.	.	.	.	.	48ddd\J	.	.
.	.	.	.	.	16ccc\	.	.
.	.	.	.	.	16fff\	.	.
.	.	.	.	.	16aaa\JJ)	.	.
!!LO:LB:g=original
=111	=111	=111	=111	=111	=111	=111	=111
!LO:TX:t=P:problem=all\middle&colon; global	!	!	!	!LO:DY:rj:t=pp.	!LO:TUP:a:problem=klamra łukowa	!	!
4CC\ 4GG\ 4C\	.	.	4G</ 4c</ 4e/ 4g/	pp	(>20ggg\LL	.	.
.	.	.	.	.	20aaa\	.	.
.	.	.	.	.	20ggg\	.	pp
.	.	.	.	.	20eee\	.	.
.	.	.	.	.	20fff\JJ	.	.
!	!	!	!	!	!LO:TUP:a:problem=klamra łukowa	!	!
4AA\ 4E\ 4A\	.	.	4c/ 4e/ 4a/ 4cc/	.	20ggg\LL	.	.
.	.	.	.	.	20aaa\	.	.
.	.	.	.	.	20ggg\	.	.
.	.	.	.	.	20eee\	.	.
.	.	.	.	.	20fff\JJ	.	.
=112	=112	=112	=112	=112	=112	=112	=112
!	!	!	!LO:TX:t=P:problem=all\right&colon; global	!	!LO:TUP:a:problem=klamra łukowa	!	!
4E\ 4B\ 4e\	.	.	4g\ 4b\ 4ee\ 4gg\	.	20ggg\LL	.	.
.	.	.	.	.	20aaa\	.	.
.	.	.	.	.	20ggg\	.	.
.	.	.	.	.	20eee\	.	.
.	.	.	.	.	20fff\JJ	.	.
!	!	!	!	!	!LO:TUP:a:problem=klamra łukowa	!	!
!	!	!	!LO:TX:b:i:t=rit.:rj	!	!LO:TX:b:i:t=rit.	!	!
4G\ 4d\ 4g\	.	.	4b\ 4ff\ 4gg\ 4bb\	.	20ggg\LL	.	.
.	.	.	.	.	20aaa\	.	.
.	.	.	.	.	20ggg\	.	.
.	.	.	.	.	20eee\	.	.
.	.	.	.	.	20fff\JJ)	.	.
=113	=113	=113	=113	=113	=113	=113	=113
*	*	*	*	*	*8va	*	*
4c\ 4g\ 4cc\	.	.	4cc/ 4ee/ 4aa/ 4ccc/	.	[<2eeee\	0	.
!LO:TX:t=P:4\left:problem	!	!	!	!LO:DY:rj:t=pp.	!	!	!
4C\ 4G\	.	.	4e/ 4cc/	pp	.	.	.
=114	=114	=114	=114	=114	=114	=114	=114
2CC\ 2GG\	.	.	2E</ 2c</	.	2eeee\]	.	.
*	*	*	*	*	*X8va	*	*
==	==	==	==	==	==	==	==
*-	*-	*-	*-	*-	*-	*-	*-
!!!system-decoration: g1,[{g2}]
!!!RDF**dynam: < = "cres", fontstyle="italic"
!!!RDF**dynam: > = "dim.", fontstyle="italic"
!!!AIN: 2 piano 1 violn
!!!ENC: Berenika Jozajtis
!!!END: 2021-11-08
!!!EED: Jędrzej Mróz
!!!ESR: 2021-11-11
!!!RDF**kern: > = above
!!!RDF**kern: < = below
